icons/pregnant_3638w_fill.svg

<svg width="48" height="48" viewBox="0 0 48 48" fill="none" xmlns="http://www.w3.org/2000/svg">
<path d="M38.9846 32.0909C39.4851 32.3243 40.0801 32.1077 40.3135 31.6072C41.5892 28.8715 42.1564 25.859 41.963 22.8467C41.7696 19.8344 40.8218 16.9191 39.2067 14.3691C37.5917 11.819 35.3613 9.71601 32.7207 8.2536C30.0801 6.79119 27.1142 6.01631 24.0958 6.00025C21.0773 5.9842 18.1033 6.72747 15.4473 8.16171C12.7913 9.59594 10.5387 11.6751 8.89659 14.2078C7.2545 16.7406 6.27572 19.6456 6.05028 22.6556C5.82484 25.6657 6.35998 28.6841 7.60649 31.4332C7.83456 31.9362 8.4272 32.1591 8.93019 31.931C9.43319 31.7029 9.65606 31.1103 9.42799 30.6073C8.31999 28.1637 7.8443 25.4806 8.04469 22.805C8.24508 20.1294 9.11512 17.5472 10.5747 15.2958C11.5183 13.8405 12.6886 12.5537 14.036 11.4813C14.1751 11.6628 14.3142 11.8413 14.449 12.0142C14.5646 12.1625 14.6775 12.3074 14.784 12.446C15.2027 12.991 15.5422 13.4638 15.7688 13.8944C15.9973 14.3289 16.0556 14.6194 16.037 14.8168C16.0223 14.9726 15.9493 15.1974 15.587 15.4955L14.8397 16.1103C14.2504 16.5951 13.8792 17.2101 13.7772 17.8854C13.6759 18.5554 13.8528 19.2014 14.2086 19.7228C14.9233 20.7704 16.322 21.3002 17.8157 20.9022C17.9486 20.8668 18.0451 20.8456 18.1145 20.8332C18.1548 20.8986 18.2049 20.9862 18.2769 21.1136L18.8506 22.3855L15.6071 23.447C14.5573 23.7905 13.9848 24.9201 14.3284 25.9698C14.6719 27.0196 15.8014 27.5921 16.8512 27.2486L18.5827 26.6819L20.0852 30.1251C20.3888 30.8209 21.0601 31.2848 21.8182 31.3227C24.8949 31.4768 27.2737 30.3494 28.7725 28.7507C29.5075 27.9666 30.0366 27.0615 30.3143 26.1405C30.5824 25.2509 30.6613 24.1763 30.2378 23.1849C29.8807 22.3488 29.0047 21.8588 28.1054 21.992L26.6252 22.2114L25.8994 19.9865C25.5569 18.9364 24.4279 18.3628 23.3778 18.7054C22.3277 19.0479 21.7541 20.1769 22.0966 21.227L23.3462 25.0576C23.6326 25.9358 24.4795 26.497 25.3879 26.4325C24.8688 26.8239 24.1528 27.1575 23.2094 27.2833L21.5217 23.4157C21.4894 23.3416 21.453 23.2703 21.413 23.2021L20.0629 20.209L20.0212 20.135C19.9231 19.961 19.8108 19.7618 19.6925 19.5945C19.5594 19.4064 19.3643 19.1768 19.0662 19.0152C18.4636 18.6885 17.8017 18.8361 17.3008 18.9696C16.5451 19.171 16.0509 18.8745 15.8607 18.5957C15.764 18.4539 15.7354 18.3118 15.7547 18.1842C15.7732 18.0621 15.8484 17.8703 16.1104 17.6548L16.8576 17.04C17.5409 16.4779 17.9535 15.7964 18.0281 15.0043C18.0988 14.254 17.8501 13.5551 17.5388 12.9634C17.2256 12.3679 16.7927 11.7777 16.3699 11.2275C16.245 11.0649 16.1213 10.9061 15.9991 10.7494C15.9347 10.6667 15.8705 10.5843 15.807 10.5025C15.7635 10.4465 15.7203 10.3907 15.6774 10.3349C15.9135 10.1911 16.1536 10.0533 16.3976 9.92151C18.7585 8.64664 21.4021 7.98595 24.0851 8.00022C26.7682 8.0145 29.4046 8.70328 31.7517 10.0032C34.0989 11.3031 36.0815 13.1724 37.5171 15.4392C38.9527 17.7059 39.7952 20.2973 39.9671 22.9748C40.139 25.6524 39.6348 28.3303 38.5009 30.762C38.2675 31.2625 38.484 31.8575 38.9846 32.0909Z" fill="black"/>
<path d="M35.2109 36.1315C35.1383 35.6957 35.4327 35.2835 35.8685 35.2109C36.3043 35.1383 36.7165 35.4327 36.7891 35.8685L37.2532 38.6528L37.8054 37.6864C37.9478 37.4372 38.2129 37.2833 38.5 37.2833C38.7871 37.2833 39.0522 37.4372 39.1946 37.6864L39.7468 38.6528L40.2109 35.8685C40.2835 35.4327 40.6957 35.1383 41.1315 35.2109C41.5673 35.2835 41.8618 35.6957 41.7891 36.1315L40.9558 41.1315C40.9002 41.4653 40.6406 41.7279 40.3075 41.7875C39.9745 41.8471 39.6399 41.6907 39.4721 41.3969L38.5 39.6958L37.5279 41.3969C37.3601 41.6907 37.0255 41.8471 36.6925 41.7875C36.3594 41.7279 36.0998 41.4653 36.0442 41.1315L35.2109 36.1315Z" fill="black"/>
<path d="M10.7 37.25C10.7 37.0536 10.5117 36.8 10.1589 36.8H9.26481C8.9956 36.8 8.80813 36.9585 8.74803 37.117C8.59137 37.5301 8.12947 37.738 7.71635 37.5814C7.30322 37.4247 7.09532 36.9628 7.25198 36.5497C7.56009 35.7372 8.36616 35.2 9.26481 35.2H10.1589C11.2874 35.2 12.3 36.0657 12.3 37.25C12.3 37.7316 12.1325 38.1606 11.8579 38.5C12.1325 38.8394 12.3 39.2684 12.3 39.75C12.3 40.9343 11.2874 41.8 10.1589 41.8H9.26481C8.36616 41.8 7.5601 41.2628 7.25198 40.4503C7.09532 40.0372 7.30322 39.5753 7.71635 39.4186C8.12947 39.262 8.59137 39.4699 8.74803 39.883C8.80813 40.0415 8.9956 40.2 9.26481 40.2H10.1589C10.5117 40.2 10.7 39.9464 10.7 39.75C10.7 39.5536 10.5117 39.3 10.1589 39.3H9.26481C8.82298 39.3 8.46481 38.9418 8.46481 38.5C8.46481 38.0582 8.82298 37.7 9.26481 37.7H10.1589C10.5117 37.7 10.7 37.4464 10.7 37.25Z" fill="black"/>
<path d="M26.2 37.25C26.2 37.0536 26.0117 36.8 25.6589 36.8H24.7648C24.4956 36.8 24.3081 36.9585 24.248 37.117C24.0914 37.5301 23.6295 37.738 23.2163 37.5814C22.8032 37.4247 22.5953 36.9628 22.752 36.5497C23.0601 35.7372 23.8662 35.2 24.7648 35.2H25.6589C26.7874 35.2 27.8 36.0657 27.8 37.25C27.8 37.7316 27.6325 38.1606 27.3579 38.5C27.6325 38.8394 27.8 39.2684 27.8 39.75C27.8 40.9343 26.7874 41.8 25.6589 41.8H24.7648C23.8662 41.8 23.0601 41.2628 22.752 40.4503C22.5953 40.0372 22.8032 39.5753 23.2163 39.4186C23.6295 39.262 24.0914 39.4699 24.248 39.883C24.3081 40.0415 24.4956 40.2 24.7648 40.2H25.6589C26.0117 40.2 26.2 39.9464 26.2 39.75C26.2 39.5536 26.0117 39.3 25.6589 39.3H24.7648C24.323 39.3 23.9648 38.9418 23.9648 38.5C23.9648 38.0582 24.323 37.7 24.7648 37.7H25.6589C26.0117 37.7 26.2 37.4464 26.2 37.25Z" fill="black"/>
<path fill-rule="evenodd" clip-rule="evenodd" d="M16.6805 36.8C16.9323 36.8 17.1149 36.9508 17.1754 37.113C17.3298 37.5269 17.7906 37.7373 18.2046 37.5829C18.6185 37.4284 18.8289 36.9676 18.6745 36.5537C18.3727 35.7448 17.5777 35.2 16.6805 35.2H15.8195C14.6903 35.2 13.7 36.0776 13.7 37.25V39.75C13.7 40.9224 14.6903 41.8 15.8195 41.8H16.6805C17.8097 41.8 18.8 40.9224 18.8 39.75C18.8 38.5776 17.8097 37.7 16.6805 37.7H15.8195C15.6418 37.7 15.4675 37.7217 15.3 37.7629V37.25C15.3 37.0417 15.4913 36.8 15.8195 36.8H16.6805ZM15.3 39.75C15.3 39.5417 15.4913 39.3 15.8195 39.3H16.6805C17.0088 39.3 17.2 39.5417 17.2 39.75C17.2 39.9583 17.0088 40.2 16.6805 40.2H15.8195C15.4913 40.2 15.3 39.9583 15.3 39.75Z" fill="black"/>
<path fill-rule="evenodd" clip-rule="evenodd" d="M33.8619 38.5C34.1346 38.1591 34.3 37.7292 34.3 37.25C34.3 36.0776 33.3097 35.2 32.1805 35.2H31.3195C30.1903 35.2 29.2 36.0776 29.2 37.25C29.2 37.7292 29.3654 38.1591 29.6381 38.5C29.3654 38.8409 29.2 39.2708 29.2 39.75C29.2 40.9224 30.1903 41.8 31.3195 41.8H32.1805C33.3097 41.8 34.3 40.9224 34.3 39.75C34.3 39.2708 34.1346 38.8409 33.8619 38.5ZM31.3195 36.8C30.9913 36.8 30.8 37.0417 30.8 37.25C30.8 37.4583 30.9913 37.7 31.3195 37.7H32.1805C32.5088 37.7 32.7 37.4583 32.7 37.25C32.7 37.0417 32.5088 36.8 32.1805 36.8H31.3195ZM32.7 39.75C32.7 39.5417 32.5088 39.3 32.1805 39.3H31.3195C30.9913 39.3 30.8 39.5417 30.8 39.75C30.8 39.9583 30.9913 40.2 31.3195 40.2H32.1805C32.5088 40.2 32.7 39.9583 32.7 39.75Z" fill="black"/>
<path d="M20.5 38.2C20.0582 38.2 19.7 38.5582 19.7 39C19.7 39.4418 20.0582 39.8 20.5 39.8H21.5C21.9418 39.8 22.3 39.4418 22.3 39C22.3 38.5582 21.9418 38.2 21.5 38.2H20.5Z" fill="black"/>
<path d="M34.9423 19.8092C33.9628 21.6769 31.6547 22.397 29.787 21.4175C27.9193 20.438 27.1992 18.1299 28.1787 16.2622C29.1581 14.3945 31.4662 13.6744 33.334 14.6539C35.2017 15.6333 35.9218 17.9414 34.9423 19.8092Z" fill="black"/>
</svg>

<svg
  xmlns="http://www.w3.org/2000/svg"
  width="24"
  height="24"
  viewBox="0 0 24 24"
  fill="none"
  stroke="currentColor"
  stroke-width="2"
  stroke-linecap="round"
  stroke-linejoin="round"
>
  <path d="M38.985 32.09a1 1 0 0 0 1.328-.483 18 18 0 1 0-32.707-.174 1 1 0 1 0 1.822-.826 16 16 0 0 1 4.608-19.126l.413.533q.175.223.335.432c.419.545.758 1.018.985 1.448.228.435.287.725.268.923-.015.156-.088.38-.45.678l-.747.615c-.59.485-.96 1.1-1.063 1.775-.101.67.076 1.316.432 1.838.714 1.047 2.113 1.577 3.607 1.18q.197-.052.299-.07c.04.066.09.153.162.28l.574 1.273-3.244 1.061a2 2 0 1 0 1.244 3.802l1.732-.567 1.502 3.443a2 2 0 0 0 1.733 1.198c3.077.154 5.456-.974 6.954-2.572.736-.784 1.265-1.69 1.542-2.61.268-.89.347-1.965-.076-2.956a2 2 0 0 0-2.133-1.193l-1.48.22-.726-2.226a2 2 0 1 0-3.802 1.241l1.25 3.83a2 2 0 0 0 2.04 1.376c-.518.39-1.234.724-2.178.85l-1.687-3.867a2 2 0 0 0-.109-.214l-1.35-2.993-.042-.074c-.098-.174-.21-.373-.329-.54a1.86 1.86 0 0 0-.626-.58c-.602-.326-1.264-.179-1.765-.045-.756.201-1.25-.095-1.44-.374a.57.57 0 0 1-.106-.412c.018-.122.093-.314.355-.53l.748-.614c.683-.562 1.095-1.244 1.17-2.036.07-.75-.178-1.449-.49-2.04-.312-.596-.745-1.186-1.168-1.737L16 10.75l-.193-.247-.13-.167q.355-.216.72-.413a16 16 0 0 1 22.104 20.84 1 1 0 0 0 .484 1.329" />
  <path d="M35.21 36.132a.8.8 0 0 1 1.58-.264l.463 2.785.552-.967a.8.8 0 0 1 1.39 0l.552.967.464-2.785a.8.8 0 0 1 1.578.264l-.833 5a.8.8 0 0 1-1.484.265l-.972-1.701-.972 1.7a.8.8 0 0 1-1.484-.264z" />
  <path d="M10.7 37.25c0-.196-.188-.45-.541-.45h-.894c-.27 0-.457.159-.517.317a.8.8 0 0 1-1.496-.567c.308-.813 1.114-1.35 2.013-1.35h.894c1.128 0 2.141.866 2.141 2.05 0 .482-.168.91-.442 1.25.274.34.442.768.442 1.25 0 1.184-1.013 2.05-2.141 2.05h-.894c-.899 0-1.705-.537-2.013-1.35a.8.8 0 0 1 1.496-.567c.06.158.248.317.517.317h.894c.353 0 .541-.254.541-.45s-.188-.45-.541-.45h-.894a.8.8 0 0 1 0-1.6h.894c.353 0 .541-.254.541-.45" />
  <path d="M26.2 37.25c0-.196-.188-.45-.541-.45h-.894c-.27 0-.457.159-.517.317a.8.8 0 0 1-1.496-.567c.308-.813 1.114-1.35 2.013-1.35h.894c1.128 0 2.141.866 2.141 2.05 0 .482-.168.91-.442 1.25.274.34.442.768.442 1.25 0 1.184-1.013 2.05-2.141 2.05h-.894c-.899 0-1.705-.537-2.013-1.35a.8.8 0 1 1 1.496-.567c.06.158.248.317.517.317h.894c.353 0 .541-.254.541-.45s-.188-.45-.541-.45h-.894a.8.8 0 0 1 0-1.6h.894c.353 0 .541-.254.541-.45" />
  <path
    fill-rule="evenodd"
    d="M16.68 36.8c.252 0 .435.15.495.313a.8.8 0 0 0 1.5-.56c-.302-.808-1.097-1.353-1.995-1.353h-.86c-1.13 0-2.12.878-2.12 2.05v2.5c0 1.172.99 2.05 2.12 2.05h.86c1.13 0 2.12-.878 2.12-2.05s-.99-2.05-2.12-2.05h-.86q-.268 0-.52.063v-.513c0-.208.191-.45.52-.45zm-1.38 2.95c0-.208.191-.45.52-.45h.86c.329 0 .52.242.52.45s-.191.45-.52.45h-.86c-.329 0-.52-.242-.52-.45"
    clip-rule="evenodd"
  />
  <path
    fill-rule="evenodd"
    d="M33.862 38.5c.273-.34.438-.77.438-1.25 0-1.172-.99-2.05-2.12-2.05h-.86c-1.13 0-2.12.878-2.12 2.05 0 .48.165.91.438 1.25-.273.34-.438.77-.438 1.25 0 1.172.99 2.05 2.12 2.05h.86c1.13 0 2.12-.878 2.12-2.05 0-.48-.165-.91-.438-1.25m-2.543-1.7c-.328 0-.519.242-.519.45s.191.45.52.45h.86c.329 0 .52-.242.52-.45s-.191-.45-.52-.45zm1.381 2.95c0-.208-.191-.45-.52-.45h-.86c-.329 0-.52.242-.52.45s.191.45.52.45h.86c.329 0 .52-.242.52-.45"
    clip-rule="evenodd"
  />
  <path d="M20.5 38.2a.8.8 0 0 0 0 1.6h1a.8.8 0 0 0 0-1.6z" />
  <path d="M34.942 19.81a3.819 3.819 0 1 1-6.763-3.548 3.819 3.819 0 0 1 6.763 3.547" />
</svg>
